Newaita-dark/apps/24/preferences-desktop-peripherals.svg

<?xml version="1.0" encoding="UTF-8"?>
<svg xmlns="http://www.w3.org/2000/svg" xmlns:xlink="http://www.w3.org/1999/xlink" width="24pt" height="24pt" viewBox="0 0 24 24" version="1.1">
<defs>
<radialGradient id="radial0" gradientUnits="userSpaceOnUse" cx="450.908936" cy="189.579361" fx="450.908936" fy="189.579361" r="21.166656" gradientTransform="matrix(0.000000130628,-0.0585994,-0.105479,-0.0000000761539,33.392364,47.696497)">
<stop offset="0" style="stop-color:rgb(0%,0%,0%);stop-opacity:0.313725;"/>
<stop offset="0.222222" style="stop-color:rgb(0%,0%,0%);stop-opacity:0.27451;"/>
<stop offset="1" style="stop-color:rgb(0%,0%,0%);stop-opacity:0;"/>
</radialGradient>
<radialGradient id="radial1" gradientUnits="userSpaceOnUse" cx="450.908936" cy="189.579361" fx="450.908936" fy="189.579361" r="21.166656" gradientTransform="matrix(-0.000000130628,0.0585994,0.105479,0.0000000761539,-9.577589,-5.645612)">
<stop offset="0" style="stop-color:rgb(0%,0%,0%);stop-opacity:0.313725;"/>
<stop offset="0.222222" style="stop-color:rgb(0%,0%,0%);stop-opacity:0.27451;"/>
<stop offset="1" style="stop-color:rgb(0%,0%,0%);stop-opacity:0;"/>
</radialGradient>
<radialGradient id="radial2" gradientUnits="userSpaceOnUse" cx="450.908936" cy="189.579361" fx="450.908936" fy="189.579361" r="21.166656" gradientTransform="matrix(-0.000000130628,-0.0585994,0.105479,-0.0000000761539,-9.577589,47.696497)">
<stop offset="0" style="stop-color:rgb(0%,0%,0%);stop-opacity:0.313725;"/>
<stop offset="0.222222" style="stop-color:rgb(0%,0%,0%);stop-opacity:0.27451;"/>
<stop offset="1" style="stop-color:rgb(0%,0%,0%);stop-opacity:0;"/>
</radialGradient>
<radialGradient id="radial3" gradientUnits="userSpaceOnUse" cx="450.908936" cy="189.579361" fx="450.908936" fy="189.579361" r="21.166656" gradientTransform="matrix(0.000000130628,0.0585994,-0.105479,0.0000000761539,33.392362,-5.645612)">
<stop offset="0" style="stop-color:rgb(0%,0%,0%);stop-opacity:0.313725;"/>
<stop offset="0.222222" style="stop-color:rgb(0%,0%,0%);stop-opacity:0.27451;"/>
<stop offset="1" style="stop-color:rgb(0%,0%,0%);stop-opacity:0;"/>
</radialGradient>
<linearGradient id="linear0" gradientUnits="userSpaceOnUse" x1="255.323059" y1="233.5" x2="255.323044" y2="254.666656" gradientTransform="matrix(0.01002,0,0,0.0468795,9.34904,10.079088)">
<stop offset="0" style="stop-color:rgb(0%,0%,0%);stop-opacity:0.27451;"/>
<stop offset="1" style="stop-color:rgb(0%,0%,0%);stop-opacity:0;"/>
</linearGradient>
<linearGradient id="linear1" gradientUnits="userSpaceOnUse" x1="254" y1="-20.499998" x2="254" y2="233.5" gradientTransform="matrix(0.0468795,0,0,0.0468795,0,10.079087)">
<stop offset="0" style="stop-color:rgb(38.039216%,38.039216%,38.039216%);stop-opacity:1;"/>
<stop offset="1" style="stop-color:rgb(25.882353%,25.882353%,25.882353%);stop-opacity:1;"/>
</linearGradient>
<linearGradient id="linear2" gradientUnits="userSpaceOnUse" x1="960" y1="735.118103" x2="960" y2="175.118134" gradientTransform="matrix(0.0124035,0,0,0.0124035,0,0)">
<stop offset="0" style="stop-color:rgb(38.039216%,38.039216%,38.039216%);stop-opacity:1;"/>
<stop offset="1" style="stop-color:rgb(45.882353%,45.882353%,45.882353%);stop-opacity:1;"/>
</linearGradient>
<linearGradient id="linear3" gradientUnits="userSpaceOnUse" x1="960" y1="735.118103" x2="960" y2="175.118134" gradientTransform="matrix(0.0124035,0,0,0.0124035,0,0)">
<stop offset="0" style="stop-color:rgb(38.039216%,38.039216%,38.039216%);stop-opacity:1;"/>
<stop offset="1" style="stop-color:rgb(45.882353%,45.882353%,45.882353%);stop-opacity:1;"/>
</linearGradient>
<linearGradient id="linear4" gradientUnits="userSpaceOnUse" x1="254" y1="64.166664" x2="254" y2="-41.666668" gradientTransform="matrix(1,0,0,1,0,-42.333332)">
<stop offset="0" style="stop-color:rgb(38.039216%,38.039216%,38.039216%);stop-opacity:1;"/>
<stop offset="1" style="stop-color:rgb(61.960784%,61.960784%,61.960784%);stop-opacity:1;"/>
</linearGradient>
</defs>
<g id="surface1">
<path style="fill-rule:nonzero;fill:rgb(98.431373%,75.294118%,17.647059%);fill-opacity:1;stroke-width:3;stroke-linecap:square;stroke-linejoin:round;stroke:rgb(12.941177%,12.941177%,12.941177%);stroke-opacity:1;stroke-miterlimit:4;" d="M 211.646455 -168.671091 L 296.305038 -168.671091 C 354.799452 -168.671091 402.128265 -121.258952 402.128265 -62.847863 L 402.128265 127.633947 C 402.128265 186.128361 354.799452 233.5405 296.305038 233.5405 L 211.646455 233.5405 C 153.235367 233.5405 105.823228 186.128361 105.823228 127.633947 L 105.823228 -62.847863 C 105.823228 -121.258952 153.235367 -168.671091 211.646455 -168.671091 Z M 211.646455 -168.671091 " transform="matrix(0.0468795,0,0,0.0468795,0,10.079087)"/>
<path style=" stroke:none;fill-rule:nonzero;fill:url(#radial0);" d="M 13.644531 21.027344 L 15.628906 21.027344 L 15.628906 20.03125 L 13.644531 20.03125 Z M 13.644531 21.027344 "/>
<path style=" stroke:none;fill-rule:nonzero;fill:url(#radial1);" d="M 10.171875 21.027344 L 8.1875 21.027344 L 8.1875 22.019531 L 10.171875 22.019531 Z M 10.171875 21.027344 "/>
<path style=" stroke:none;fill-rule:nonzero;fill:url(#radial2);" d="M 10.171875 21.027344 L 8.1875 21.027344 L 8.1875 20.03125 L 10.171875 20.03125 Z M 10.171875 21.027344 "/>
<path style=" stroke:none;fill-rule:nonzero;fill:url(#radial3);" d="M 13.644531 21.027344 L 15.628906 21.027344 L 15.628906 22.019531 L 13.644531 22.019531 Z M 13.644531 21.027344 "/>
<path style=" stroke:none;fill-rule:nonzero;fill:url(#linear0);" d="M 10.171875 20.777344 L 13.644531 20.777344 L 13.644531 22.019531 L 10.171875 22.019531 Z M 10.171875 20.777344 "/>
<path style=" stroke:none;fill-rule:nonzero;fill:url(#linear1);" d="M 9.921875 2.171875 C 7.175781 2.171875 4.960938 4.386719 4.960938 7.132812 L 4.960938 10.109375 C 5.511719 10.109375 5.953125 10.554688 5.953125 11.101562 L 5.953125 16.0625 C 5.953125 16.582031 5.5625 17.003906 5.058594 17.050781 C 5.515625 19.324219 7.511719 21.027344 9.921875 21.027344 L 13.890625 21.027344 C 16.300781 21.027344 18.300781 19.324219 18.753906 17.050781 C 18.253906 17.003906 17.859375 16.582031 17.859375 16.0625 L 17.859375 11.101562 C 17.859375 10.554688 18.304688 10.109375 18.851562 10.109375 L 18.851562 7.132812 C 18.851562 4.386719 16.640625 2.171875 13.890625 2.171875 Z M 9.921875 2.171875 "/>
<path style=" stroke:none;fill-rule:nonzero;fill:url(#linear2);" d="M 9.921875 2.171875 C 7.175781 2.171875 4.960938 4.386719 4.960938 7.132812 L 4.960938 9.117188 L 18.851562 9.117188 L 18.851562 7.132812 C 18.851562 4.386719 16.640625 2.171875 13.890625 2.171875 Z M 9.921875 2.171875 "/>
<path style=" stroke:none;fill-rule:nonzero;fill:url(#linear3);" d="M 9.921875 2.171875 C 7.175781 2.171875 4.960938 4.386719 4.960938 7.132812 L 4.960938 9.117188 L 11.90625 9.117188 L 11.90625 2.171875 Z M 9.921875 2.171875 "/>
<path style=" stroke:none;fill-rule:nonzero;fill:rgb(0%,0%,0%);fill-opacity:0.196078;" d="M 12.03125 2.171875 L 12.03125 9.117188 L 11.90625 9.117188 L 11.90625 2.171875 Z M 12.03125 2.171875 "/>
<path style=" stroke:none;fill-rule:nonzero;fill:rgb(90.196079%,90.196079%,90.196079%);fill-opacity:0.588235;" d="M 11.90625 2.171875 L 11.90625 9.117188 L 11.785156 9.117188 L 11.785156 2.171875 Z M 11.90625 2.171875 "/>
<path style=" stroke:none;fill-rule:nonzero;fill:rgb(12.941177%,12.941177%,12.941177%);fill-opacity:0.992157;" d="M 11.96875 2.171875 L 11.96875 9.117188 L 11.84375 9.117188 L 11.84375 2.171875 Z M 11.96875 2.171875 "/>
<path style=" stroke:none;fill-rule:nonzero;fill:rgb(0%,0%,0%);fill-opacity:0.196078;" d="M 4.960938 8.992188 L 18.851562 8.992188 L 18.851562 9.117188 L 4.960938 9.117188 Z M 4.960938 8.992188 "/>
<path style=" stroke:none;fill-rule:nonzero;fill:rgb(90.196079%,90.196079%,90.196079%);fill-opacity:0.588235;" d="M 4.960938 9.117188 L 18.851562 9.117188 L 18.851562 9.242188 L 4.960938 9.242188 Z M 4.960938 9.117188 "/>
<path style=" stroke:none;fill-rule:nonzero;fill:rgb(12.941177%,12.941177%,12.941177%);fill-opacity:0.992157;" d="M 4.960938 9.054688 L 18.851562 9.054688 L 18.851562 9.179688 L 4.960938 9.179688 Z M 4.960938 9.054688 "/>
<path style="fill-rule:nonzero;fill:url(#linear4);stroke-width:3;stroke-linecap:square;stroke-linejoin:round;stroke:rgb(12.941177%,12.941177%,12.941177%);stroke-opacity:1;stroke-miterlimit:4;" d="M 253.975747 -84.012509 C 265.724625 -84.012509 275.140392 -79.262962 275.140392 -73.430186 L 275.140392 11.228396 C 275.140392 17.061173 265.724625 21.810719 253.975747 21.810719 C 242.310194 21.810719 232.811101 17.061173 232.811101 11.228396 L 232.811101 -73.430186 C 232.811101 -79.262962 242.310194 -84.012509 253.975747 -84.012509 Z M 253.975747 -84.012509 " transform="matrix(0.0468795,0,0,0.0468795,0,10.079087)"/>
<path style="fill-rule:nonzero;fill:rgb(98.431373%,75.294118%,17.647059%);fill-opacity:1;stroke-width:3;stroke-linecap:square;stroke-linejoin:round;stroke:rgb(12.941177%,12.941177%,12.941177%);stroke-opacity:1;stroke-miterlimit:4;" d="M 274.390464 154.548043 C 271.724052 164.130462 262.641586 170.629841 252.642541 169.963238 C 242.643495 169.296635 234.477609 161.714026 233.061077 151.881631 C 231.644546 141.965911 237.310671 132.383493 246.726439 128.967153 C 256.142206 125.550812 266.641204 129.133804 271.974028 137.632992 L 253.975747 148.798592 Z M 274.390464 154.548043 " transform="matrix(0.0468795,0,0,0.0468795,0,10.079087)"/>
<path style=" stroke:none;fill-rule:nonzero;fill:rgb(100%,100%,100%);fill-opacity:0.313725;" d="M 9.921875 2.105469 C 7.175781 2.105469 4.960938 4.320312 4.960938 7.066406 L 4.960938 7.316406 C 4.960938 4.566406 7.175781 2.355469 9.921875 2.355469 L 13.890625 2.355469 C 16.640625 2.355469 18.851562 4.566406 18.851562 7.316406 L 18.851562 7.066406 C 18.851562 4.320312 16.640625 2.105469 13.890625 2.105469 Z M 5.953125 15.996094 C 5.953125 16.515625 5.5625 16.9375 5.058594 16.984375 C 5.074219 17.066406 5.09375 17.148438 5.113281 17.226562 C 5.589844 17.152344 5.953125 16.742188 5.953125 16.246094 Z M 17.859375 15.996094 L 17.859375 16.246094 C 17.859375 16.742188 18.222656 17.152344 18.699219 17.226562 C 18.722656 17.148438 18.738281 17.066406 18.753906 16.984375 C 18.253906 16.9375 17.859375 16.515625 17.859375 15.996094 Z M 17.859375 15.996094 "/>
<path style=" stroke:none;fill-rule:nonzero;fill:rgb(0%,0%,0%);fill-opacity:0.313725;" d="M 5.054688 9.929688 L 5.054688 10.171875 C 5.601562 10.171875 6.046875 10.617188 6.046875 11.167969 L 6.046875 10.921875 C 6.046875 10.371094 5.601562 9.929688 5.054688 9.929688 Z M 18.945312 9.929688 C 18.394531 9.929688 17.953125 10.371094 17.953125 10.921875 L 17.953125 11.167969 C 17.953125 10.617188 18.394531 10.171875 18.945312 10.171875 Z M 5.203125 17.109375 C 5.1875 17.109375 5.167969 17.113281 5.152344 17.113281 C 5.605469 19.386719 7.605469 21.089844 10.015625 21.089844 L 13.984375 21.089844 C 16.394531 21.089844 18.394531 19.386719 18.847656 17.113281 C 18.832031 17.113281 18.8125 17.109375 18.792969 17.109375 C 18.253906 19.261719 16.308594 20.84375 13.984375 20.84375 L 10.015625 20.84375 C 7.6875 20.84375 5.746094 19.261719 5.203125 17.109375 Z M 5.203125 17.109375 "/>
<path style=" stroke:none;fill-rule:nonzero;fill:rgb(12.941177%,12.941177%,12.941177%);fill-opacity:1;" d="M 9.921875 2.101562 C 7.136719 2.101562 4.890625 4.347656 4.890625 7.132812 L 4.890625 10.109375 C 4.890625 10.148438 4.921875 10.179688 4.960938 10.179688 C 5.472656 10.179688 5.882812 10.589844 5.882812 11.101562 L 5.882812 16.0625 C 5.882812 16.546875 5.519531 16.9375 5.050781 16.980469 C 5.03125 16.984375 5.015625 16.992188 5.003906 17.007812 C 4.992188 17.027344 4.984375 17.046875 4.988281 17.066406 C 5.453125 19.371094 7.480469 21.097656 9.921875 21.097656 L 13.890625 21.097656 C 16.335938 21.097656 18.363281 19.371094 18.824219 17.066406 C 18.828125 17.046875 18.824219 17.027344 18.8125 17.007812 C 18.800781 16.992188 18.78125 16.984375 18.761719 16.980469 C 18.292969 16.9375 17.929688 16.546875 17.929688 16.0625 L 17.929688 11.101562 C 17.929688 10.589844 18.339844 10.179688 18.851562 10.179688 C 18.890625 10.179688 18.921875 10.148438 18.921875 10.109375 L 18.921875 7.132812 C 18.921875 4.347656 16.679688 2.101562 13.890625 2.101562 Z M 9.921875 2.242188 L 13.890625 2.242188 C 16.601562 2.242188 18.78125 4.421875 18.78125 7.132812 L 18.78125 10.042969 C 18.230469 10.078125 17.789062 10.539062 17.789062 11.101562 L 17.789062 16.0625 C 17.789062 16.589844 18.171875 17.023438 18.671875 17.109375 C 18.195312 19.3125 16.242188 20.957031 13.890625 20.957031 L 9.921875 20.957031 C 7.570312 20.957031 5.621094 19.3125 5.144531 17.109375 C 5.644531 17.023438 6.023438 16.589844 6.023438 16.0625 L 6.023438 11.101562 C 6.023438 10.539062 5.585938 10.078125 5.03125 10.042969 L 5.03125 7.132812 C 5.03125 4.421875 7.210938 2.242188 9.921875 2.242188 Z M 9.921875 2.242188 "/>
</g>
</svg>

<svg xmlns="http://www.w3.org/2000/svg" width="32" height="32" viewBox="0 0 24 24"><defs><radialGradient id="a" gradientUnits="userSpaceOnUse" cx="450.909" cy="189.579" fx="450.909" fy="189.579" r="21.167" gradientTransform="matrix(0 -.0586 -.10548 0 33.392 47.696)"><stop offset="0" stop-opacity=".314"/><stop offset=".222" stop-opacity=".275"/><stop offset="1" stop-opacity="0"/></radialGradient><radialGradient id="b" gradientUnits="userSpaceOnUse" cx="450.909" cy="189.579" fx="450.909" fy="189.579" r="21.167" gradientTransform="matrix(0 .0586 .10548 0 -9.578 -5.646)"><stop offset="0" stop-opacity=".314"/><stop offset=".222" stop-opacity=".275"/><stop offset="1" stop-opacity="0"/></radialGradient><radialGradient id="c" gradientUnits="userSpaceOnUse" cx="450.909" cy="189.579" fx="450.909" fy="189.579" r="21.167" gradientTransform="matrix(0 -.0586 .10548 0 -9.578 47.696)"><stop offset="0" stop-opacity=".314"/><stop offset=".222" stop-opacity=".275"/><stop offset="1" stop-opacity="0"/></radialGradient><radialGradient id="d" gradientUnits="userSpaceOnUse" cx="450.909" cy="189.579" fx="450.909" fy="189.579" r="21.167" gradientTransform="matrix(0 .0586 -.10548 0 33.392 -5.646)"><stop offset="0" stop-opacity=".314"/><stop offset=".222" stop-opacity=".275"/><stop offset="1" stop-opacity="0"/></radialGradient><linearGradient id="e" gradientUnits="userSpaceOnUse" x1="255.323" y1="233.5" x2="255.323" y2="254.667" gradientTransform="matrix(.01002 0 0 .04688 9.349 10.08)"><stop offset="0" stop-opacity=".275"/><stop offset="1" stop-opacity="0"/></linearGradient><linearGradient id="f" gradientUnits="userSpaceOnUse" x1="254" y1="-20.5" x2="254" y2="233.5" gradientTransform="matrix(.04688 0 0 .04688 0 10.08)"><stop offset="0" stop-color="#616161"/><stop offset="1" stop-color="#424242"/></linearGradient><linearGradient id="g" gradientUnits="userSpaceOnUse" x1="960" y1="735.118" x2="960" y2="175.118" gradientTransform="scale(.0124)"><stop offset="0" stop-color="#616161"/><stop offset="1" stop-color="#757575"/></linearGradient><linearGradient id="h" gradientUnits="userSpaceOnUse" x1="960" y1="735.118" x2="960" y2="175.118" gradientTransform="scale(.0124)"><stop offset="0" stop-color="#616161"/><stop offset="1" stop-color="#757575"/></linearGradient><linearGradient id="i" gradientUnits="userSpaceOnUse" x1="254" y1="64.167" x2="254" y2="-41.667" gradientTransform="translate(0 -42.333)"><stop offset="0" stop-color="#616161"/><stop offset="1" stop-color="#9e9e9e"/></linearGradient></defs><path d="M9.922 2.172h3.969a4.96 4.96 0 0 1 4.96 4.96v8.93a4.961 4.961 0 0 1-4.96 4.965H9.92a4.964 4.964 0 0 1-4.96-4.964v-8.93a4.963 4.963 0 0 1 4.96-4.961zm0 0" fill="#fbc02d" stroke-width=".14064" stroke-linecap="square" stroke-linejoin="round" stroke="#212121"/><path d="M13.645 21.027h1.984v-.996h-1.984zm0 0" fill="url(#a)"/><path d="M10.172 21.027H8.187v.993h1.985zm0 0" fill="url(#b)"/><path d="M10.172 21.027H8.187v-.996h1.985zm0 0" fill="url(#c)"/><path d="M13.645 21.027h1.984v.993h-1.984zm0 0" fill="url(#d)"/><path d="M10.172 20.777h3.473v1.243h-3.473zm0 0" fill="url(#e)"/><path d="M9.922 2.172a4.953 4.953 0 0 0-4.961 4.96v2.977c.55 0 .992.446.992.993v4.96c0 .52-.39.942-.894.989a4.952 4.952 0 0 0 4.863 3.976h3.969c2.41 0 4.41-1.703 4.863-3.976a.99.99 0 0 1-.895-.988v-4.961c0-.547.446-.993.993-.993V7.133a4.95 4.95 0 0 0-4.961-4.961zm0 0" fill="url(#f)"/><path d="M9.922 2.172a4.953 4.953 0 0 0-4.961 4.96v1.985h13.89V7.133a4.95 4.95 0 0 0-4.96-4.961zm0 0" fill="url(#g)"/><path d="M9.922 2.172a4.953 4.953 0 0 0-4.961 4.96v1.985h6.945V2.172zm0 0" fill="url(#h)"/><path d="M12.031 2.172v6.945h-.125V2.172zm0 0" fill-opacity=".196"/><path d="M11.906 2.172v6.945h-.12V2.172zm0 0" fill="#e6e6e6" fill-opacity=".588"/><path d="M11.969 2.172v6.945h-.125V2.172zm0 0" fill="#212121" fill-opacity=".992"/><path d="M4.96 8.992h13.892v.125H4.96zm0 0" fill-opacity=".196"/><path d="M4.96 9.117h13.892v.125H4.96zm0 0" fill="#e6e6e6" fill-opacity=".588"/><path d="M4.96 9.055h13.892v.125H4.96zm0 0" fill="#212121" fill-opacity=".992"/><path d="M253.976-84.013c11.749 0 21.164 4.75 21.164 10.583v84.658c0 5.833-9.415 10.583-21.164 10.583-11.666 0-21.165-4.75-21.165-10.583V-73.43c0-5.833 9.5-10.583 21.165-10.583zm0 0" transform="matrix(.04688 0 0 .04688 0 10.08)" fill="url(#i)" stroke-width="3" stroke-linecap="square" stroke-linejoin="round" stroke="#212121"/><path d="M12.863 17.324a.992.992 0 1 1-.113-.793l-.844.524zm0 0" fill="#fbc02d" stroke-width=".14064" stroke-linecap="square" stroke-linejoin="round" stroke="#212121"/><path d="M9.922 2.105A4.953 4.953 0 0 0 4.96 7.066v.25a4.95 4.95 0 0 1 4.96-4.96h3.97c2.75 0 4.96 2.21 4.96 4.96v-.25a4.95 4.95 0 0 0-4.96-4.96zM5.953 15.996c0 .52-.39.941-.894.988a4.4 4.4 0 0 0 .054.243.992.992 0 0 0 .84-.98zm11.906 0v.25c0 .496.364.906.84.98.024-.078.04-.16.055-.242a.99.99 0 0 1-.895-.988zm0 0" fill="#fff" fill-opacity=".314"/><path d="M5.055 9.93v.242c.547 0 .992.445.992.996v-.246a.991.991 0 0 0-.992-.992zm13.89 0a.989.989 0 0 0-.992.992v.246c0-.55.442-.996.992-.996zM5.203 17.11l-.05.003a4.949 4.949 0 0 0 4.863 3.977h3.968c2.41 0 4.41-1.703 4.864-3.977-.016 0-.035-.004-.055-.004a4.945 4.945 0 0 1-4.809 3.735h-3.968a4.95 4.95 0 0 1-4.813-3.735zm0 0" fill-opacity=".314"/><path d="M9.922 2.102a5.023 5.023 0 0 0-5.031 5.03v2.977c0 .04.03.07.07.07.512 0 .922.41.922.923v4.96a.915.915 0 0 1-.832.918.072.072 0 0 0-.047.028c-.012.02-.02.039-.016.058a5.027 5.027 0 0 0 4.934 4.032h3.969a5.02 5.02 0 0 0 4.933-4.032.08.08 0 0 0-.012-.058.082.082 0 0 0-.05-.028.915.915 0 0 1-.832-.918v-4.96c0-.512.41-.922.922-.922a.07.07 0 0 0 .07-.07V7.132a5.02 5.02 0 0 0-5.031-5.031zm0 .14h3.969c2.71 0 4.89 2.18 4.89 4.89v2.911c-.55.035-.992.496-.992 1.059v4.96c0 .528.383.961.883 1.047a4.883 4.883 0 0 1-4.781 3.848H9.92a4.879 4.879 0 0 1-4.776-3.848c.5-.086.878-.52.878-1.047v-4.96a1.06 1.06 0 0 0-.992-1.059v-2.91c0-2.711 2.18-4.89 4.89-4.89zm0 0" fill="#212121"/></svg>
